svg/24/mobile.svg

<svg width="24" height="24" viewBox="0 0 24 24" fill="currentColor" xmlns="http://www.w3.org/2000/svg"><path d="M13.25 19C13.6642 19 14 18.6642 14 18.25C14 17.8358 13.6642 17.5 13.25 17.5H10.75C10.3358 17.5 10 17.8358 10 18.25C10 18.6642 10.3358 19 10.75 19H13.25Z"/><path fill-rule="evenodd" clip-rule="evenodd" d="M8 22C6.89543 22 6 21.1046 6 20V4C6 2.89543 6.89543 2 8 2H16C17.1046 2 18 2.89543 18 4L18 20C18 21.1046 17.1046 22 16 22H8ZM7.5 20L7.5 4C7.5 3.72386 7.72386 3.5 8 3.5L16 3.5C16.2761 3.5 16.5 3.72386 16.5 4L16.5 20C16.5 20.2761 16.2761 20.5 16 20.5H8C7.72386 20.5 7.5 20.2761 7.5 20Z"/></svg>

<svg xmlns="http://www.w3.org/2000/svg" width="24" height="24" fill="currentColor" viewBox="0 0 24 24">
  <path d="M13.25 19a.75.75 0 0 0 0-1.5h-2.5a.75.75 0 0 0 0 1.5h2.5Z"/>
  <path fill-rule="evenodd" d="M8 22a2 2 0 0 1-2-2V4a2 2 0 0 1 2-2h8a2 2 0 0 1 2 2v16a2 2 0 0 1-2 2H8Zm-.5-2V4a.5.5 0 0 1 .5-.5h8a.5.5 0 0 1 .5.5v16a.5.5 0 0 1-.5.5H8a.5.5 0 0 1-.5-.5Z" clip-rule="evenodd"/>
</svg>
